;FLAVOR:Marlin
;TIME:48626
;Filament used: 10.974m
;Layer height: 0.1
;MINX:75.2
;MINY:40.917
;MINZ:0.2
;MAXX:224.8
;MAXY:240.517
;MAXZ:5
;Generated with Cura_SteamEngine 4.7.1
M140 S60
M105
M190 S60
M104 S200
M105
M109 S200
M82 ;absolute extrusion mode
G28 ;Home
M141 S28
G92 E0
G92 E0
;LAYER_COUNT:49
;LAYER:0
M107
;MESH:Powder plate v2.stl
G0 F3600 X119.469 Y141.16 Z0.2
;TYPE:WALL-INNER
G1 F1800 X119.391 Y139.498 E0.02087
G1 X119.382 Y139.408 E0.022
G1 X118.998 Y137.814 E0.04256
G1 X118.972 Y137.727 E0.0437
G1 X118.259 Y136.166 E0.06522
G1 X117.256 Y134.756 E0.08692
G1 X116.002 Y133.561 E0.10864
G1 X114.547 Y132.626 E0.13033
G1 X112.941 Y131.982 E0.15203
G1 X111.241 Y131.655 E0.17374
G1 X109.511 Y131.655 E0.19543
G1 X107.811 Y131.982 E0.21714
G1 X106.205 Y132.626 E0.23884
G1 X104.75 Y133.561 E0.26053
G1 X103.496 Y134.756 E0.28225
G1 X102.493 Y136.166 E0.30395
G1 X101.773 Y137.74 E0.32566
G1 X101.39 Y139.327 E0.34613
G1 X101.367 Y139.411 E0.34722
G1 X101.29 Y141.045 E0.36774
G1 X101.283 Y141.138 E0.36891
G1 X101.518 Y142.782 E0.38973
G1 X101.533 Y142.872 E0.39088
G1 X102.095 Y144.498 E0.41245
G1 X102.961 Y145.997 E0.43416
G1 X104.094 Y147.305 E0.45586
G1 X105.455 Y148.375 E0.47757
G1 X106.993 Y149.168 E0.49927
G1 X108.653 Y149.655 E0.52097
G1 X110.376 Y149.82 E0.54267
G1 X112.099 Y149.655 E0.56438
G1 X113.759 Y149.168 E0.58607
G1 X115.297 Y148.375 E0.60777
G1 X116.658 Y147.305 E0.62948
G1 X117.791 Y145.997 E0.65118
G1 X118.657 Y144.498 E0.67289
G1 X119.222 Y142.863 E0.69459
G1 X119.451 Y141.26 E0.71489
G1 X119.469 Y141.16 E0.71617
G0 F3600 X151.303 Y134.973
G1 F1800 X151.361 Y134.928 E0.71709
G1 X151.842 Y134.559 E0.72469
G1 X152.256 Y134.02 E0.73321
G1 X152.517 Y133.391 E0.74175
G1 X152.605 Y132.717 E0.75028
G1 X152.517 Y132.043 E0.7588
G1 X152.256 Y131.414 E0.76734
G1 X151.842 Y130.875 E0.77586
G1 X151.303 Y130.461 E0.78439
G1 X150.674 Y130.2 E0.79293
G1 X150 Y130.112 E0.80145
G1 X149.326 Y130.2 E0.80997
G1 X148.697 Y130.461 E0.81851
G1 X148.158 Y130.875 E0.82704
G1 X147.744 Y131.414 E0.83556
G1 X147.483 Y132.043 E0.8441
G1 X147.395 Y132.717 E0.85262
G1 X147.483 Y133.391 E0.86115
G1 X147.744 Y134.02 E0.86969
G1 X148.158 Y134.559 E0.87821
G1 X148.638 Y134.928 E0.8858
G1 X148.697 Y134.973 E0.88673
G1 X149.199 Y135.181 E0.89355
G1 X148.779 Y135.289 E0.89554
G1 X148.707 Y135.307 E0.89639
G1 X147.936 Y135.506 E0.90638
G1 X146.706 Y136.183 E0.92398
G1 X145.681 Y137.145 E0.94161
G1 X144.929 Y138.33 E0.95921
G1 X144.574 Y139.423 E0.97362
G1 X144.547 Y139.508 E0.97474
G1 X144.495 Y139.667 E0.97684
G1 X144.478 Y139.948 E0.98037
G1 X144.381 Y139.715 E0.98077
G1 X144.256 Y139.414 E0.9835
G1 X144.202 Y139.343 E0.9845
G1 X143.842 Y138.875 E0.9919
G1 X143.303 Y138.461 E1.00043
G1 X142.674 Y138.2 E1.00897
G1 X142 Y138.112 E1.01749
G1 X141.326 Y138.2 E1.02601
G1 X140.697 Y138.461 E1.03455
G1 X140.158 Y138.875 E1.04308
G1 X139.744 Y139.414 E1.0516
G1 X139.483 Y140.043 E1.06014
G1 X139.395 Y140.717 E1.06866
G1 X139.483 Y141.391 E1.07719
G1 X139.744 Y142.02 E1.08573
G1 X140.158 Y142.559 E1.09425
G1 X140.697 Y142.973 E1.10277
G1 X141.326 Y143.234 E1.11131
G1 X142 Y143.322 E1.11984
G1 X142.674 Y143.234 E1.12836
G1 X143.303 Y142.973 E1.1369
G1 X143.842 Y142.559 E1.14543
G1 X144.205 Y142.086 E1.1529
G1 X144.256 Y142.02 E1.15395
G1 X144.483 Y141.472 E1.16139
G1 X144.575 Y141.959 E1.16371
G1 X144.59 Y142.041 E1.16466
G1 X144.652 Y142.36 E1.16874
G1 X144.675 Y142.46 E1.17002
G1 X145.268 Y143.72 E1.18749
G1 X146.163 Y144.803 E1.2051
G1 X147.3 Y145.628 E1.22272
G1 X148.549 Y146.122 E1.23956
G1 X148.607 Y146.145 E1.24035
G1 X148.735 Y146.161 E1.24196
G1 X149.259 Y146.228 E1.24859
G1 X148.732 Y146.446 E1.25146
G1 X148.697 Y146.461 E1.25169
G1 X148.647 Y146.499 E1.25248
G1 X148.158 Y146.875 E1.26022
G1 X147.744 Y147.414 E1.26874
G1 X147.483 Y148.043 E1.27728
G1 X147.395 Y148.717 E1.2858
G1 X147.483 Y149.391 E1.29433
G1 X147.744 Y150.02 E1.30287
G1 X148.158 Y150.559 E1.31139
G1 X148.697 Y150.973 E1.31991
G1 X149.326 Y151.234 E1.32845
G1 X150 Y151.322 E1.33698
G1 X150.674 Y151.234 E1.3455
G1 X151.303 Y150.973 E1.35404
G1 X151.842 Y150.559 E1.36257
G1 X152.256 Y150.02 E1.37109
G1 X152.517 Y149.391 E1.37963
G1 X152.605 Y148.717 E1.38815
G1 X152.517 Y148.043 E1.39668
G1 X152.256 Y147.414 E1.40522
G1 X151.842 Y146.875 E1.41374
G1 X151.353 Y146.499 E1.42147
G1 X151.303 Y146.461 E1.42226
G1 X151.269 Y146.447 E1.42272
G1 X150.741 Y146.228 E1.42989
G1 X151.264 Y146.162 E1.43221
G1 X151.393 Y146.145 E1.43385
G1 X151.451 Y146.122 E1.43463
G1 X152.7 Y145.628 E1.45147
G1 X153.837 Y144.803 E1.46909
G1 X154.732 Y143.72 E1.48671
G1 X155.331 Y142.448 E1.50434
G1 X155.408 Y142.04 E1.50955
G1 X155.423 Y141.96 E1.51057
G1 X155.516 Y141.471 E1.51681
G1 X155.744 Y142.02 E1.52037
G1 X155.793 Y142.085 E1.52131
G1 X156.158 Y142.559 E1.52881
G1 X156.697 Y142.973 E1.53733
G1 X157.326 Y143.234 E1.54587
G1 X158 Y143.322 E1.5544
G1 X158.674 Y143.234 E1.56292
G1 X159.303 Y142.973 E1.57146
G1 X159.842 Y142.559 E1.57998
G1 X160.256 Y142.02 E1.58851
G1 X160.517 Y141.391 E1.59705
G1 X160.605 Y140.717 E1.60557
G1 X160.517 Y140.043 E1.6141
G1 X160.256 Y139.414 E1.62264
G1 X159.842 Y138.875 E1.63116
G1 X159.303 Y138.461 E1.63968
G1 X158.674 Y138.2 E1.64822
G1 X158 Y138.112 E1.65675
G1 X157.326 Y138.2 E1.66527
G1 X156.697 Y138.461 E1.67381
G1 X156.158 Y138.875 E1.68233
G1 X155.798 Y139.343 E1.68974
G1 X155.744 Y139.414 E1.69086
G1 X155.625 Y139.702 E1.69476
G1 X155.591 Y139.784 E1.69588
G1 X155.524 Y139.944 E1.69805
G1 X155.512 Y139.752 E1.69847
G1 X155.5 Y139.651 E1.69867
G1 X155.454 Y139.509 E1.69931
G1 X155.427 Y139.424 E1.70031
G1 X155.071 Y138.33 E1.71474
G1 X154.319 Y137.145 E1.73234
G1 X153.294 Y136.183 E1.74996
G1 X152.064 Y135.506 E1.76757
G1 X151.293 Y135.308 E1.77755
G1 X151.222 Y135.29 E1.7784
G1 X150.801 Y135.181 E1.78385
G1 X151.303 Y134.973 E1.78722
G0 F3600 X159.093 Y101.536
G1 F1800 X159.015 Y99.874 E1.80809
G1 X159.006 Y99.784 E1.80922
G1 X158.622 Y98.19 E1.82978
G1 X158.596 Y98.103 E1.83092
G1 X157.883 Y96.542 E1.85244
G1 X156.88 Y95.132 E1.87414
G1 X155.626 Y93.937 E1.89586
G1 X154.171 Y93.002 E1.91755
G1 X152.565 Y92.358 E1.93925
G1 X150.865 Y92.031 E1.96096
G1 X149.135 Y92.031 E1.98266
G1 X147.435 Y92.358 E2.00437
G1 X145.829 Y93.002 E2.02606
G1 X144.374 Y93.937 E2.04775
G1 X143.12 Y95.132 E2.06948
G1 X142.117 Y96.542 E2.09117
G1 X141.397 Y98.116 E2.11288
G1 X141.014 Y99.703 E2.13335
G1 X140.991 Y99.787 E2.13445
G1 X140.914 Y101.421 E2.15496
G1 X140.907 Y101.514 E2.15613
G1 X141.142 Y103.158 E2.17695
G1 X141.157 Y103.248 E2.1781
G1 X141.719 Y104.874 E2.19967
G1 X142.585 Y106.373 E2.22138
G1 X143.718 Y107.681 E2.24308
G1 X145.079 Y108.751 E2.26479
G1 X146.617 Y109.544 E2.28649
G1 X148.277 Y110.031 E2.30819
G1 X150 Y110.196 E2.32989
G1 X151.723 Y110.031 E2.3516
G1 X153.383 Y109.544 E2.37329
G1 X154.921 Y108.751 E2.39499
G1 X156.282 Y107.681 E2.4167
G1 X157.415 Y106.373 E2.43841
G1 X158.281 Y104.874 E2.46011
G1 X158.846 Y103.239 E2.48181
G1 X159.075 Y101.636 E2.50211
G1 X159.093 Y101.536 E2.50339
G0 F3600 X175.73 Y72.102
G1 F1800 X176.191 Y73.213 E2.51847
G1 X176.923 Y74.167 E2.53355
G1 X177.876 Y74.898 E2.54861
G1 X178.988 Y75.359 E2.56371
G1 X180.179 Y75.515 E2.57877
G1 X181.37 Y75.359 E2.59384
G1 X182.482 Y74.898 E2.60893
G1 X183.435 Y74.167 E2.62399
G1 X184.167 Y73.213 E2.63907
G1 X184.628 Y72.102 E2.65416
G1 X184.784 Y70.91 E2.66923
G1 X184.628 Y69.719 E2.6843
G1 X184.167 Y68.607 E2.69939
G1 X183.435 Y67.654 E2.71446
G1 X182.482 Y66.922 E2.72953
G1 X181.37 Y66.462 E2.74462
G1 X180.179 Y66.305 E2.75969
G1 X178.988 Y66.462 E2.77475
G1 X177.876 Y66.922 E2.78984
G1 X176.923 Y67.654 E2.80491
G1 X176.191 Y68.607 E2.81998
G1 X175.73 Y69.719 E2.83508
G1 X175.574 Y70.91 E2.85014
G1 X175.73 Y72.102 E2.86522
G0 F3600 X189.084 Y71.279
G1 F1800 X189.32 Y72.73 E2.88365
G1 X189.34 Y72.824 E2.88486
G1 X189.903 Y74.238 E2.90394
G1 X190.765 Y75.508 E2.92319
G1 X191.879 Y76.565 E2.94245
G1 X193.197 Y77.358 E2.96174
G1 X194.653 Y77.847 E2.981
G1 X196.179 Y78.013 E3.00025
G1 X197.705 Y77.847 E3.0195
G1 X199.161 Y77.358 E3.03876
G1 X200.479 Y76.565 E3.05805
G1 X201.593 Y75.508 E3.07731
G1 X202.455 Y74.238 E3.09655
G1 X203.024 Y72.81 E3.11583
G1 X203.254 Y71.396 E3.1338
G1 X203.272 Y71.306 E3.13495
G1 X203.194 Y69.841 E3.15334
G1 X203.185 Y69.748 E3.15452
G1 X202.801 Y68.36 E3.17258
G1 X202.772 Y68.269 E3.17377
G1 X202.059 Y66.924 E3.19286
G1 X201.064 Y65.753 E3.21213
G1 X199.841 Y64.824 E3.23139
G1 X198.447 Y64.179 E3.25066
G1 X196.948 Y63.848 E3.26991
G1 X195.41 Y63.848 E3.28919
G1 X193.911 Y64.179 E3.30844
G1 X192.517 Y64.824 E3.32771
G1 X191.294 Y65.753 E3.34697
G1 X190.299 Y66.924 E3.36624
G1 X189.58 Y68.281 E3.38549
G1 X189.195 Y69.671 E3.40358
G1 X189.17 Y69.75 E3.40462
G1 X189.095 Y71.169 E3.42244
G1 X189.084 Y71.279 E3.42383
G0 F3600 X191.73 Y56.102
G1 F1800 X192.191 Y57.213 E3.43891
G1 X192.923 Y58.167 E3.45399
G1 X193.876 Y58.898 E3.46905
G1 X194.988 Y59.359 E3.48415
G1 X196.179 Y59.515 E3.49921
G1 X197.37 Y59.359 E3.51427
G1 X198.482 Y58.898 E3.52937
G1 X199.435 Y58.167 E3.54443
G1 X200.167 Y57.213 E3.55951
G1 X200.628 Y56.102 E3.5746
G1 X200.784 Y54.91 E3.58967
G1 X200.628 Y53.719 E3.60473
G1 X200.167 Y52.607 E3.61983
G1 X199.435 Y51.654 E3.6349
G1 X198.482 Y50.922 E3.64997
G1 X197.37 Y50.462 E3.66506
G1 X196.179 Y50.305 E3.68013
G1 X194.988 Y50.462 E3.69519
G1 X193.876 Y50.922 E3.71028
G1 X192.923 Y51.654 E3.72535
G1 X192.191 Y52.607 E3.74042
G1 X191.73 Y53.719 E3.75552
G1 X191.574 Y54.91 E3.77058
G1 X191.73 Y56.102 E3.78565
G0 F3600 X207.73 Y72.102
G1 F1800 X208.191 Y73.213 E3.80074
G1 X208.923 Y74.167 E3.81582
G1 X209.876 Y74.898 E3.83088
G1 X210.988 Y75.359 E3.84598
G1 X212.179 Y75.515 E3.86104
G1 X213.37 Y75.359 E3.8761
G1 X214.482 Y74.898 E3.8912
G1 X215.435 Y74.167 E3.90626
G1 X216.167 Y73.213 E3.92134
G1 X216.628 Y72.102 E3.93642
G1 X216.784 Y70.91 E3.9515
G1 X216.628 Y69.719 E3.96656
G1 X216.167 Y68.607 E3.98166
G1 X215.435 Y67.654 E3.99673
G1 X214.482 Y66.922 E4.0118
G1 X213.37 Y66.462 E4.02689
G1 X212.179 Y66.305 E4.04195
G1 X210.988 Y66.462 E4.05702
G1 X209.876 Y66.922 E4.07211
G1 X208.923 Y67.654 E4.08718
G1 X208.191 Y68.607 E4.10225
G1 X207.73 Y69.719 E4.11734
G1 X207.574 Y70.91 E4.13241
G1 X207.73 Y72.102 E4.14748
G0 F3600 X191.73 Y88.102
G1 F1800 X192.191 Y89.213 E4.16257
G1 X192.923 Y90.167 E4.17765
G1 X193.876 Y90.898 E4.19271
G1 X194.988 Y91.359 E4.2078
G1 X196.179 Y91.515 E4.22287
G1 X197.37 Y91.359 E4.23793
G1 X198.482 Y90.898 E4.25302
G1 X199.435 Y90.167 E4.26809
G1 X200.167 Y89.213 E4.28317
G1 X200.628 Y88.102 E4.29825
G1 X200.784 Y86.91 E4.31333
G1 X200.628 Y85.719 E4.32839
G1 X200.167 Y84.607 E4.34348
G1 X199.435 Y83.654 E4.35855
G1 X198.482 Y82.922 E4.37362
G1 X197.37 Y82.462 E4.38871
G1 X196.179 Y82.305 E4.40378
G1 X194.988 Y82.462 E4.41884
G1 X193.876 Y82.922 E4.43394
G1 X192.923 Y83.654 E4.449
G1 X192.191 Y84.607 E4.46407
G1 X191.73 Y85.719 E4.47917
G1 X191.574 Y86.91 E4.49423
G1 X191.73 Y88.102 E4.50931
G0 F3600 X198.717 Y141.16
G1 F1800 X198.639 Y139.498 E4.53017
G1 X198.63 Y139.408 E4.53131
G1 X198.246 Y137.814 E4.55187
G1 X198.22 Y137.727 E4.55301
G1 X197.507 Y136.166 E4.57453
G1 X196.504 Y134.756 E4.59623
G1 X195.25 Y133.561 E4.61795
G1 X193.795 Y132.626 E4.63964
G1 X192.189 Y131.982 E4.66134
G1 X190.489 Y131.655 E4.68305
G1 X188.759 Y131.655 E4.70474
G1 X187.059 Y131.982 E4.72645
G1 X185.453 Y132.626 E4.74815
G1 X183.998 Y133.561 E4.76984
G1 X182.744 Y134.756 E4.79156
G1 X181.741 Y136.166 E4.81326
G1 X181.021 Y137.74 E4.83497
G1 X180.638 Y139.327 E4.85544
G1 X180.615 Y139.411 E4.85653
G1 X180.538 Y141.045 E4.87705
G1 X180.531 Y141.138 E4.87822
G1 X180.766 Y142.782 E4.89904
G1 X180.781 Y142.872 E4.90019
G1 X181.343 Y144.498 E4.92176
G1 X182.209 Y145.997 E4.94347
G1 X183.342 Y147.305 E4.96517
G1 X184.703 Y148.375 E4.98688
G1 X186.241 Y149.168 E5.00858
G1 X187.901 Y149.655 E5.03027
G1 X189.624 Y149.82 E5.05198
G1 X191.347 Y149.655 E5.07369
G1 X193.007 Y149.168 E5.09538
G1 X194.545 Y148.375 E5.11708
G1 X195.906 Y147.305 E5.13879
G1 X197.039 Y145.997 E5.16049
G1 X197.905 Y144.498 E5.1822
G1 X198.47 Y142.863 E5.20389
G1 X198.699 Y141.26 E5.2242
G1 X198.717 Y141.16 E5.22548
G0 F3600 X159.093 Y180.784
G1 F1800 X159.015 Y179.122 E5.24634
G1 X159.006 Y179.032 E5.24747
G1 X158.622 Y177.438 E5.26804
G1 X158.596 Y177.351 E5.26917
G1 X157.883 Y175.79 E5.2907
G1 X156.88 Y174.38 E5.31239
G1 X155.626 Y173.185 E5.33412
G1 X154.171 Y172.25 E5.35581
G1 X152.565 Y171.606 E5.3775
G1 X150.865 Y171.279 E5.39921
G1 X149.135 Y171.279 E5.42091
G1 X147.435 Y171.606 E5.44262
G1 X145.829 Y172.25 E5.46432
G1 X144.374 Y173.185 E5.48601
G1 X143.12 Y174.38 E5.50773
G1 X142.117 Y175.79 E5.52943
G1 X141.397 Y177.364 E5.55113
G1 X141.014 Y178.951 E5.57161
G1 X140.991 Y179.035 E5.5727
G1 X140.914 Y180.669 E5.59321
G1 X140.907 Y180.762 E5.59438
G1 X141.142 Y182.406 E5.61521
G1 X141.157 Y182.496 E5.61635
G1 X141.719 Y184.122 E5.63793
G1 X142.585 Y185.621 E5.65964
G1 X143.718 Y186.929 E5.68134
G1 X145.079 Y187.999 E5.70305
G1 X146.617 Y188.792 E5.72475
G1 X148.277 Y189.279 E5.74644
G1 X150 Y189.444 E5.76815
G1 X151.723 Y189.279 E5.78985
G1 X153.383 Y188.792 E5.81155
G1 X154.921 Y187.999 E5.83325
G1 X156.282 Y186.929 E5.85496
G1 X157.415 Y185.621 E5.87666
G1 X158.281 Y184.122 E5.89837
G1 X158.846 Y182.487 E5.92006
G1 X159.075 Y180.884 E5.94037
G1 X159.093 Y180.784 E5.94164
G0 F3600 X119.809 Y206.268
G1 F1800 X118.697 Y206.729 E5.95674
G1 X117.744 Y207.46 E5.9718
G1 X117.012 Y208.414 E5.98688
G1 X116.551 Y209.526 E6.00197
G1 X116.395 Y210.717 E6.01704
G1 X116.551 Y211.908 E6.0321
G1 X117.012 Y213.02 E6.0472
G1 X117.744 Y213.973 E6.06227
G1 X118.697 Y214.705 E6.07734
G1 X119.809 Y215.166 E6.09243
G1 X121 Y215.322 E6.10749
G1 X122.191 Y215.166 E6.12256
G1 X123.303 Y214.705 E6.13765
G1 X124.256 Y213.973 E6.15272
G1 X124.988 Y213.02 E6.16779
G1 X125.449 Y211.908 E6.18289
G1 X125.605 Y210.717 E6.19795
G1 X125.449 Y209.526 E6.21301
G1 X124.988 Y208.414 E6.22811
G1 X124.256 Y207.46 E6.24319
G1 X123.303 Y206.729 E6.25825
G1 X122.191 Y206.268 E6.27335
G1 X121 Y206.112 E6.28841
G1 X119.809 Y206.268 E6.30347
G0 F3600 X97.905 Y211.086
G1 F1800 X98.141 Y212.537 E6.32191
G1 X98.161 Y212.631 E6.32311
G1 X98.724 Y214.045 E6.3422
G1 X99.586 Y215.315 E6.36145
G1 X100.7 Y216.372 E6.38071
G1 X102.018 Y217.164 E6.39999
G1 X103.474 Y217.654 E6.41925
G1 X105 Y217.82 E6.4385
G1 X106.526 Y217.654 E6.45775
G1 X107.982 Y217.164 E6.47702
G1 X109.3 Y216.372 E6.4963
G1 X110.414 Y215.315 E6.51556
G1 X111.276 Y214.045 E6.53481
G1 X111.845 Y212.617 E6.55408
G1 X112.075 Y211.203 E6.57205
G1 X112.093 Y211.113 E6.5732
G1 X112.015 Y209.647 E6.59161
G1 X112.006 Y209.554 E6.59278
G1 X111.622 Y208.167 E6.61083
G1 X111.593 Y208.076 E6.61203
G1 X110.88 Y206.73 E6.63113
G1 X109.885 Y205.56 E6.65039
G1 X108.663 Y204.63 E6.66965
G1 X107.267 Y203.985 E6.68893
G1 X105.768 Y203.655 E6.70818
G1 X104.232 Y203.655 E6.72744
G1 X102.733 Y203.985 E6.74669
G1 X101.337 Y204.63 E6.76597
G1 X100.115 Y205.56 E6.78523
G1 X99.12 Y206.73 E6.80449
G1 X98.401 Y208.088 E6.82376
G1 X98.021 Y209.463 E6.84165
G1 X97.991 Y209.556 E6.84288
G1 X97.916 Y210.976 E6.86071
G1 X97.905 Y211.086 E6.86209
G0 F3600 X87.809 Y206.268
G1 F1800 X86.697 Y206.729 E6.87719
G1 X85.744 Y207.46 E6.89225
G1 X85.012 Y208.414 E6.90733
G1 X84.551 Y209.526 E6.92243
G1 X84.395 Y210.717 E6.93749
G1 X84.551 Y211.908 E6.95255
G1 X85.012 Y213.02 E6.96765
G1 X85.744 Y213.973 E6.98272
G1 X86.697 Y214.705 E6.99779
G1 X87.809 Y215.166 E7.01288
G1 X89 Y215.322 E7.02795
G1 X90.191 Y215.166 E7.04301
G1 X91.303 Y214.705 E7.05811
G1 X92.256 Y213.973 E7.07318
G1 X92.988 Y213.02 E7.08825
G1 X93.449 Y211.908 E7.10334
G1 X93.605 Y210.717 E7.1184
G1 X93.449 Y209.526 E7.13347
G1 X92.988 Y208.414 E7.14856
G1 X92.256 Y207.46 E7.16364
G1 X91.303 Y206.729 E7.1787
G1 X90.191 Y206.268 E7.1938
G1 X89 Y206.112 E7.20886
G1 X87.809 Y206.268 E7.22393
G0 F3600 X103.809 Y222.268
G1 F1800 X102.697 Y222.729 E7.23902
G1 X101.744 Y223.46 E7.25408
G1 X101.012 Y224.414 E7.26916
G1 X100.551 Y225.526 E7.28426
G1 X100.395 Y226.717 E7.29932
G1 X100.551 Y227.908 E7.31439
