;FLAVOR:Marlin
;TIME:2266
;Filament used: 0.498414m
;Layer height: 0.1
;MINX:139.2
;MINY:136.968
;MINZ:0.2
;MAXX:160.8
;MAXY:163.032
;MAXZ:20
;Generated with Cura_SteamEngine 4.7.1
M140 S60
M105
M190 S60
M104 S200
M105
M109 S200
M82 ;absolute extrusion mode
G28 ;Home
M141 S28
G92 E0
G92 E0
;LAYER_COUNT:199
;LAYER:0
M107
;MESH:5mw laser mount.stl
G0 F3600 X145.997 Y155.242 Z0.2
;TYPE:WALL-INNER
G1 F1800 X145.815 Y154.807 E0.00591
G1 X145.374 Y154.197 E0.01535
G1 X145.02 Y153.895 E0.02119
G1 X144.342 Y153.549 E0.03073
G1 X143.916 Y153.447 E0.03623
G1 X143.534 Y153.416 E0.04103
G1 X139.6 Y153.416 E0.09037
G1 X139.6 Y137.368 E0.29161
G1 X160.4 Y137.368 E0.55245
G1 X160.4 Y153.416 E0.7537
G1 X156.377 Y153.416 E0.80415
G1 X155.648 Y153.53 E0.8134
G1 X155.216 Y153.71 E0.81927
G1 X154.605 Y154.153 E0.82874
G1 X154.303 Y154.506 E0.83456
G1 X153.958 Y155.182 E0.84408
G1 X153.855 Y155.612 E0.84963
G1 X153.824 Y155.992 E0.85441
G1 X153.823 Y161.191 E0.9196
G1 X153.745 Y161.684 E0.92586
G1 X153.674 Y161.852 E0.92815
G1 X153.409 Y162.215 E0.93379
G1 X153.053 Y162.474 E0.93931
G1 X152.621 Y162.615 E0.94501
G1 X152.402 Y162.632 E0.94776
G1 X147.551 Y162.631 E1.00859
G1 X147.058 Y162.553 E1.01485
G1 X146.89 Y162.482 E1.01714
G1 X146.527 Y162.217 E1.02278
G1 X146.268 Y161.861 E1.0283
G1 X146.127 Y161.428 E1.03401
G1 X146.11 Y161.212 E1.03673
G1 X146.11 Y155.962 E1.10256
G1 X145.997 Y155.242 E1.1117
G0 F3600 X150.521 Y162.054
G1 F1800 X151.317 Y161.799 E1.12218
G1 X151.739 Y161.558 E1.12828
G1 X152.335 Y161.022 E1.13833
G1 X152.622 Y160.631 E1.14441
G1 X152.949 Y159.899 E1.15447
G1 X153.052 Y159.425 E1.16055
G1 X153.052 Y158.587 E1.17106
G1 X152.822 Y157.777 E1.18162
G1 X152.382 Y157.065 E1.19211
G1 X152.046 Y156.714 E1.19821
G1 X151.382 Y156.265 E1.20826
G1 X150.933 Y156.082 E1.21434
G1 X150.143 Y155.942 E1.2244
G1 X149.66 Y155.955 E1.23046
G1 X148.88 Y156.148 E1.24054
G1 X148.443 Y156.358 E1.24662
G1 X147.812 Y156.852 E1.25667
G1 X147.497 Y157.221 E1.26275
G1 X147.121 Y157.929 E1.2728
G1 X146.984 Y158.394 E1.27888
G1 X146.927 Y159.195 E1.28895
G1 X146.992 Y159.675 E1.29503
G1 X147.264 Y160.43 E1.30509
G1 X147.519 Y160.843 E1.31118
G1 X148.076 Y161.419 E1.32123
G1 X148.477 Y161.693 E1.32732
G1 X149.22 Y161.993 E1.33736
G1 X149.696 Y162.081 E1.34343
G1 X150.521 Y162.054 E1.35379
G0 F3600 X152.652 Y158.643
;TYPE:WALL-OUTER
G1 F1800 X152.452 Y157.94 E1.36295
G1 X152.064 Y157.311 E1.37222
G1 X151.787 Y157.022 E1.37724
G1 X151.192 Y156.62 E1.38624
G1 X150.821 Y156.468 E1.39127
G1 X150.113 Y156.343 E1.40029
G1 X149.714 Y156.354 E1.40529
G1 X149.016 Y156.526 E1.41431
G1 X148.656 Y156.7 E1.41932
G1 X148.09 Y157.142 E1.42833
G1 X147.83 Y157.447 E1.43335
G1 X147.493 Y158.081 E1.44236
G1 X147.38 Y158.465 E1.44738
G1 X147.329 Y159.182 E1.45639
G1 X147.383 Y159.579 E1.46142
G1 X147.626 Y160.255 E1.47043
G1 X147.837 Y160.596 E1.47545
G1 X148.335 Y161.112 E1.48445
G1 X148.667 Y161.338 E1.48948
G1 X149.333 Y161.607 E1.49849
G1 X149.726 Y161.68 E1.5035
G1 X150.452 Y161.656 E1.51261
G1 X151.155 Y161.431 E1.52187
G1 X151.503 Y161.232 E1.5269
G1 X152.037 Y160.752 E1.5359
G1 X152.274 Y160.429 E1.54092
G1 X152.567 Y159.774 E1.54992
G1 X152.652 Y159.382 E1.55495
G1 X152.652 Y158.643 E1.56422
G0 F3600 X152.598 Y158.451
G0 X145.078 Y154.47
G1 F1800 X144.796 Y154.23 E1.56886
G1 X144.202 Y153.927 E1.57723
G1 X143.853 Y153.843 E1.58173
G1 X143.518 Y153.816 E1.58594
G1 X139.2 Y153.816 E1.64009
G1 X139.2 Y136.968 E1.85137
G1 X160.8 Y136.968 E2.12224
G1 X160.8 Y153.816 E2.33352
G1 X156.408 Y153.816 E2.3886
G1 X155.757 Y153.918 E2.39686
G1 X155.413 Y154.061 E2.40154
G1 X154.878 Y154.449 E2.40982
G1 X154.638 Y154.73 E2.41446
G1 X154.336 Y155.322 E2.42279
G1 X154.251 Y155.675 E2.42735
G1 X154.224 Y156.008 E2.43154
G1 X154.223 Y161.223 E2.49693
G1 X154.132 Y161.796 E2.50421
G1 X154.025 Y162.05 E2.50767
G1 X153.695 Y162.502 E2.51468
G1 X153.238 Y162.834 E2.52177
G1 X152.697 Y163.01 E2.5289
G1 X152.421 Y163.032 E2.53237
G1 X147.519 Y163.031 E2.59385
G1 X146.946 Y162.94 E2.60112
G1 X146.692 Y162.833 E2.60458
G1 X146.24 Y162.503 E2.6116
G1 X145.908 Y162.046 E2.61868
G1 X145.732 Y161.505 E2.62581
G1 X145.71 Y161.232 E2.62925
G1 X145.71 Y155.993 E2.69495
G1 X145.609 Y155.352 E2.70309
G1 X145.464 Y155.004 E2.70781
G1 X145.078 Y154.47 E2.71608
G0 F3600 X144.926 Y154.341
G0 X145.238 Y153.569
;TYPE:SKIN
G1 F1800 X144.478 Y153.18 E2.72678
G1 X143.978 Y153.061 E2.73323
G1 X143.55 Y153.026 E2.73861
G1 X139.99 Y153.026 E2.78326
G1 X139.99 Y137.758 E2.97472
G1 X160.01 Y137.758 E3.22578
G1 X160.01 Y153.026 E3.41725
G1 X156.346 Y153.026 E3.4632
G1 X155.541 Y153.152 E3.47341
G1 X155.024 Y153.367 E3.48044
G1 X154.338 Y153.864 E3.49106
G1 X153.977 Y154.288 E3.49804
G1 X153.589 Y155.046 E3.50872
G1 X153.469 Y155.55 E3.51522
G1 X153.434 Y155.976 E3.52058
G1 X153.434 Y158.503 E3.55227
G1 X153.183 Y157.619 E3.56379
G1 X152.692 Y156.825 E3.5755
G1 X152.299 Y156.414 E3.58263
G1 X151.567 Y155.92 E3.5937
G1 X151.042 Y155.705 E3.60082
G1 X150.172 Y155.552 E3.6119
G1 X149.607 Y155.567 E3.61898
G1 X148.747 Y155.779 E3.63009
G1 X148.236 Y156.025 E3.6372
G1 X147.541 Y156.569 E3.64827
G1 X147.173 Y157 E3.65538
G1 X146.758 Y157.781 E3.66647
G1 X146.598 Y158.324 E3.67357
G1 X146.535 Y159.207 E3.68467
G1 X146.611 Y159.769 E3.69178
G1 X146.911 Y160.6 E3.70286
G1 X147.209 Y161.083 E3.70998
G1 X147.823 Y161.719 E3.72106
G1 X148.292 Y162.039 E3.72818
G1 X148.794 Y162.241 E3.73497
G1 X147.586 Y162.241 E3.75012
G1 X147.162 Y162.174 E3.7555
G1 X147.084 Y162.141 E3.75656
G1 X146.809 Y161.94 E3.76083
G1 X146.62 Y161.679 E3.76488
G1 X146.511 Y161.347 E3.76926
G1 X146.5 Y161.212 E3.77096
G1 X146.5 Y155.931 E3.83718
G1 X146.375 Y155.135 E3.84729
G1 X146.158 Y154.615 E3.85435
G1 X145.663 Y153.93 E3.86495
G1 X145.238 Y153.569 E3.87194
G0 F3600 X153.433 Y159.506
G1 F1800 X153.433 Y161.156 E3.89264
G1 X153.366 Y161.58 E3.89802
G1 X153.333 Y161.658 E3.89908
G1 X153.132 Y161.933 E3.90335
G1 X152.871 Y162.122 E3.90739
G1 X152.54 Y162.231 E3.91176
G1 X152.398 Y162.242 E3.91355
G1 X151.213 Y162.242 E3.92841
G1 X151.475 Y162.158 E3.93186
G1 X151.969 Y161.876 E3.93899
G1 X152.626 Y161.285 E3.95008
G1 X152.961 Y160.828 E3.95718
G1 X153.322 Y160.022 E3.96826
G1 X153.433 Y159.506 E3.97488
G0 F3600 X147.305 Y162.013
G1 F1800 X146.729 Y161.437 E3.98509
G0 F3600 X146.68 Y160.822
G1 F1800 X147.464 Y161.607 E3.999
G0 F3600 X147.73 Y161.873
G1 F1800 X147.918 Y162.06 E4.00233
G0 F3600 X152.249 Y161.865
G1 F1800 X152.44 Y162.057 E4.00572
G0 F3600 X152.857 Y161.908
G1 F1800 X152.546 Y161.597 E4.01124
G0 F3600 X152.827 Y161.312
G1 F1800 X153.137 Y161.622 E4.01674
G0 F3600 X153.249 Y161.168
G1 F1800 X153.066 Y160.986 E4.01997
G0 F3600 X153.254 Y157.213
G1 F1800 X152.966 Y156.926 E4.02507
G0 F3600 X153.254 Y156.648
G1 F1800 X140.169 Y143.563 E4.25713
G0 F3600 X140.169 Y142.998
G1 F1800 X153.254 Y156.082 E4.48918
G0 F3600 X153.288 Y155.551
G1 F1800 X140.169 Y142.432 E4.72185
G0 F3600 X140.169 Y141.866
G1 F1800 X153.392 Y155.089 E4.95635
G0 F3600 X153.565 Y154.697
G1 F1800 X140.169 Y141.301 E5.19393
G0 F3600 X140.169 Y140.735
G1 F1800 X153.757 Y154.323 E5.43491
G0 F3600 X153.992 Y153.992
G1 F1800 X140.169 Y140.169 E5.68005
G0 F3600 X140.169 Y139.604
G1 F1800 X154.261 Y153.695 E5.92996
G0 F3600 X154.589 Y153.458
G1 F1800 X140.169 Y139.038 E6.1857
G0 F3600 X140.169 Y138.472
G1 F1800 X154.917 Y153.22 E6.44725
G0 F3600 X155.313 Y153.05
G1 F1800 X140.2 Y137.938 E6.71527
G0 F3600 X140.766 Y137.938
G1 F1800 X155.763 Y152.935 E6.98124
G0 F3600 X156.252 Y152.858
G1 F1800 X141.332 Y137.938 E7.24584
G0 F3600 X141.897 Y137.938
G1 F1800 X156.805 Y152.846 E7.51023
G0 F3600 X157.371 Y152.846
G1 F1800 X142.463 Y137.938 E7.77462
G0 F3600 X143.029 Y137.938
G1 F1800 X157.937 Y152.846 E8.03901
G0 F3600 X158.502 Y152.846
G1 F1800 X143.595 Y137.938 E8.30339
G0 F3600 X144.16 Y137.938
G1 F1800 X159.068 Y152.846 E8.56778
G0 F3600 X159.634 Y152.846
G1 F1800 X144.726 Y137.938 E8.83217
G0 F3600 X145.292 Y137.938
G1 F1800 X159.829 Y152.475 E9.08998
G0 F3600 X159.829 Y151.909
G1 F1800 X145.857 Y137.938 E9.33776
G0 F3600 X146.423 Y137.938
G1 F1800 X159.829 Y151.344 E9.57551
G0 F3600 X159.829 Y150.778
G1 F1800 X146.989 Y137.938 E9.80323
G0 F3600 X147.554 Y137.938
G1 F1800 X159.829 Y150.212 E10.02091
G0 F3600 X159.829 Y149.647
G1 F1800 X148.12 Y137.938 E10.22857
G0 F3600 X148.686 Y137.938
G1 F1800 X159.829 Y149.081 E10.42619
G0 F3600 X159.829 Y148.515
G1 F1800 X149.251 Y137.938 E10.61378
G0 F3600 X149.817 Y137.938
G1 F1800 X159.829 Y147.95 E10.79134
G0 F3600 X159.829 Y147.384
G1 F1800 X150.383 Y137.938 E10.95886
G0 F3600 X150.948 Y137.938
G1 F1800 X159.829 Y146.818 E11.11635
G0 F3600 X159.829 Y146.253
G1 F1800 X151.514 Y137.938 E11.26382
G0 F3600 X152.08 Y137.938
G1 F1800 X159.829 Y145.687 E11.40124
G0 F3600 X159.829 Y145.121
G1 F1800 X152.645 Y137.938 E11.52864
G0 F3600 X153.211 Y137.938
G1 F1800 X159.829 Y144.555 E11.646
G0 F3600 X159.829 Y143.99
G1 F1800 X153.777 Y137.938 E11.75333
G0 F3600 X154.343 Y137.938
G1 F1800 X159.829 Y143.424 E11.85063
G0 F3600 X159.829 Y142.858
G1 F1800 X154.908 Y137.938 E11.93789
G0 F3600 X155.474 Y137.938
G1 F1800 X159.829 Y142.293 E12.01512
G0 F3600 X159.829 Y141.727
G1 F1800 X156.04 Y137.938 E12.08232
G0 F3600 X156.605 Y137.938
G1 F1800 X159.829 Y141.161 E12.13949
G0 F3600 X159.829 Y140.596
G1 F1800 X157.171 Y137.938 E12.18663
G0 F3600 X157.737 Y137.938
G1 F1800 X159.829 Y140.03 E12.22373
G0 F3600 X159.829 Y139.464
G1 F1800 X158.302 Y137.938 E12.2508
G0 F3600 X158.868 Y137.938
G1 F1800 X159.829 Y138.899 E12.26785
G0 F3600 X159.829 Y138.333
G1 F1800 X159.434 Y137.938 E12.27485
G0 F3600 X150.986 Y155.511
G1 F1800 X140.169 Y144.695 E12.46668
G0 F3600 X140.169 Y145.26
G1 F1800 X150.299 Y155.39 E12.64633
G0 F3600 X149.726 Y155.383
G1 F1800 X140.169 Y145.826 E12.81582
G0 F3600 X140.169 Y146.392
G1 F1800 X149.246 Y155.469 E12.9768
G0 F3600 X148.792 Y155.581
G1 F1800 X140.169 Y146.958 E13.12973
G0 F3600 X140.169 Y147.523
G1 F1800 X148.394 Y155.748 E13.2756
G0 F3600 X148.033 Y155.953
G1 F1800 X140.169 Y148.089 E13.41506
G0 F3600 X140.169 Y148.655
G1 F1800 X144.518 Y153.003 E13.49218
G0 F3600 X143.814 Y152.865
G1 F1800 X140.169 Y149.22 E13.55683
G0 F3600 X140.169 Y149.786
G1 F1800 X143.228 Y152.845 E13.61108
G0 F3600 X142.663 Y152.845
G1 F1800 X140.169 Y150.352 E13.6553
G0 F3600 X140.169 Y150.917
G1 F1800 X142.097 Y152.845 E13.68949
G0 F3600 X141.531 Y152.845
G1 F1800 X140.169 Y151.483 E13.71365
G0 F3600 X140.169 Y152.049
G1 F1800 X140.965 Y152.845 E13.72776
G0 F3600 X140.4 Y152.845
G1 F1800 X140.169 Y152.614 E13.73186
G0 F3600 X146.514 Y154.999
G1 F1800 X147.716 Y156.202 E13.75318
G0 F3600 X147.402 Y156.453
G1 F1800 X146.644 Y155.695 E13.76663
G0 F3600 X146.679 Y156.296
G1 F1800 X147.141 Y156.758 E13.77482
G0 F3600 X146.916 Y157.099
G1 F1800 X146.679 Y156.861 E13.77903
G0 F3600 X152.105 Y156.064
G1 F1800 X140.169 Y144.129 E13.99071
G1 X140.099 Y144.059
G0 F3600 X149.145 Y162.155
;TYPE:SKIN
G1 F1800 X149.439 Y162.45 E13.99332
G0 F3600 X149.499 Y162.227
G1 F1800 X149.722 Y162.45 E13.9953
G0 F3600 X149.811 Y162.256
G1 F1800 X150.005 Y162.45 E13.99702
G0 F3600 X150.086 Y162.248
G1 F1800 X150.288 Y162.45 E13.99881
G0 F3600 X150.359 Y162.239
G1 F1800 X150.571 Y162.45 E14.00068
G0 F3600 X150.615 Y162.212
G1 F1800 X150.854 Y162.45 E14.0028
G0 F3600 X151.031 Y162.345
G1 F1800 X150.829 Y162.143 E14.00459
G0 F3600 X149.157 Y162.45
G1 F1800 X148.984 Y162.278 E14.00612
;MESH:NONMESH
G0 F600 X148.984 Y162.278 Z0.3
G0 F3600 X155.655 Y153.528
;TIME_ELAPSED:44.306468
;LAYER:1
;TYPE:WALL-INNER
;MESH:5mw laser mount.stl
G1 F2700 X155.207 Y153.715 E14.00916
G1 X154.612 Y154.148 E14.01378
G1 X154.302 Y154.508 E14.01675
G1 X153.96 Y155.175 E14.02145
G1 X153.854 Y155.618 E14.02431
G1 X153.824 Y155.992 E14.02666
G1 X153.824 Y161.183 E14.05921
G1 X153.748 Y161.666 E14.06228
G1 X153.553 Y162.048 E14.06497
G1 X153.24 Y162.361 E14.06774
G1 X152.858 Y162.556 E14.07043
G1 X152.375 Y162.632 E14.0735
G1 X147.559 Y162.632 E14.10369
G1 X147.078 Y162.556 E14.10675
G1 X146.692 Y162.359 E14.10947
G1 X146.37 Y162.037 E14.11232
G1 X146.268 Y161.865 E14.11357
G1 X146.127 Y161.429 E14.11645
G1 X146.11 Y161.212 E14.11781
G1 X146.109 Y155.953 E14.15079
G1 X146 Y155.254 E14.15522
G1 X145.81 Y154.798 E14.15832
G1 X145.379 Y154.204 E14.16292
G1 X145.019 Y153.894 E14.1659
G1 X144.348 Y153.551 E14.17063
G1 X143.912 Y153.446 E14.17344
G1 X143.534 Y153.416 E14.17582
G1 X139.6 Y153.416 E14.20048
G1 X139.6 Y137.368 E14.30111
G1 X160.4 Y137.368 E14.43153
G1 X160.4 Y153.416 E14.53215
G1 X156.378 Y153.416 E14.55737
G1 X155.655 Y153.528 E14.56196
G0 F5400 X153.052 Y158.588
G1 F2700 X152.834 Y157.815 E14.56699
G1 X152.602 Y157.37 E14.57014
G1 X152.101 Y156.768 E14.57505
G1 X151.709 Y156.453 E14.5782
G1 X151.003 Y156.108 E14.58313
G1 X150.52 Y155.98 E14.58626
G1 X149.733 Y155.949 E14.5912
G1 X149.238 Y156.032 E14.59435
G1 X148.51 Y156.323 E14.59926
G1 X148.09 Y156.599 E14.60242
G1 X147.544 Y157.162 E14.60733
G1 X147.273 Y157.585 E14.61048
G1 X147.003 Y158.322 E14.6154
G1 X146.927 Y158.817 E14.61854
G1 X146.979 Y159.603 E14.62348
G1 X147.112 Y160.085 E14.62662
G1 X147.478 Y160.781 E14.63155
G1 X147.797 Y161.168 E14.63469
G1 X148.413 Y161.653 E14.63961
G1 X148.862 Y161.878 E14.64276
G1 X149.624 Y162.07 E14.64769
G1 X150.123 Y162.094 E14.65082
G1 X150.898 Y161.96 E14.65575
G1 X151.366 Y161.776 E14.6589
G1 X152.017 Y161.34 E14.66382
G1 X152.37 Y160.983 E14.66696
G1 X152.788 Y160.318 E14.67189
G1 X152.959 Y159.868 E14.67491
G1 X153.052 Y159.423 E14.67776
G1 X153.052 Y158.588 E14.68299
G0 F5400 X152.652 Y158.643
;TYPE:WALL-OUTER
G1 F1800 X152.46 Y157.963 E14.68742
G1 X152.267 Y157.593 E14.69004
G1 X151.819 Y157.055 E14.69443
G1 X151.493 Y156.793 E14.69705
G1 X150.863 Y156.485 E14.70145
G1 X150.46 Y156.378 E14.70406
G1 X149.758 Y156.35 E14.70847
G1 X149.347 Y156.419 E14.71108
G1 X148.696 Y156.679 E14.71548
G1 X148.347 Y156.909 E14.7181
G1 X147.859 Y157.412 E14.72249
G1 X147.633 Y157.764 E14.72512
G1 X147.392 Y158.422 E14.72951
G1 X147.329 Y158.834 E14.73212
G1 X147.375 Y159.536 E14.73653
G1 X147.486 Y159.937 E14.73914
G1 X147.813 Y160.558 E14.74354
G1 X148.078 Y160.88 E14.74616
G1 X148.629 Y161.314 E14.75056
G1 X149.002 Y161.501 E14.75317
G1 X149.683 Y161.672 E14.75758
G1 X150.098 Y161.692 E14.76018
G1 X150.79 Y161.573 E14.76458
G1 X151.179 Y161.42 E14.7672
G1 X151.761 Y161.03 E14.7716
G1 X152.055 Y160.733 E14.77422
G1 X152.428 Y160.139 E14.77862
G1 X152.574 Y159.755 E14.78119
G1 X152.652 Y159.382 E14.78358
G1 X152.652 Y158.643 E14.78821
G0 F5400 X152.598 Y158.451
G0 X155.764 Y153.916
G1 F1800 X155.404 Y154.066 E14.79066
G1 X154.885 Y154.444 E14.79469
G1 X154.636 Y154.733 E14.79708
G1 X154.338 Y155.315 E14.80118
G1 X154.25 Y155.681 E14.80354
G1 X154.224 Y156.008 E14.80559
G1 X154.224 Y161.214 E14.83824
G1 X154.133 Y161.789 E14.84189
G1 X153.879 Y162.288 E14.8454
G1 X153.48 Y162.687 E14.84894
G1 X152.981 Y162.941 E14.85245
G1 X152.406 Y163.032 E14.8561
G1 X147.528 Y163.032 E14.88668
G1 X146.953 Y162.941 E14.89033
G1 X146.453 Y162.686 E14.89385
G1 X146.054 Y162.287 E14.89739
G1 X145.9 Y162.029 E14.89927
G1 X145.732 Y161.506 E14.90272
G1 X145.71 Y161.232 E14.90444
G1 X145.709 Y155.984 E14.93735
G1 X145.612 Y155.363 E14.94129
G1 X145.459 Y154.995 E14.94379
G1 X145.083 Y154.477 E14.9478
G1 X144.794 Y154.228 E14.95019
G1 X144.208 Y153.929 E14.95432
G1 X143.849 Y153.842 E14.95664
G1 X143.518 Y153.816 E14.95872
G1 X139.2 Y153.816 E14.98579
G1 X139.2 Y136.968 E15.09143
G1 X160.8 Y136.968 E15.22687
G1 X160.8 Y153.816 E15.33251
G1 X156.409 Y153.816 E15.36004
G1 X155.764 Y153.916 E15.36413
G0 F5400 X155.58 Y153.992
G0 X155.014 Y153.372
;TYPE:SKIN
G1 F1800 X154.346 Y153.859 E15.36932
G1 X153.976 Y154.289 E15.37287
G1 X153.592 Y155.039 E15.37816
G1 X153.468 Y155.557 E15.3815
G1 X153.434 Y155.976 E15.38413
G1 X153.434 Y158.506 E15.4
G1 X153.199 Y157.67 E15.40544
G1 X152.928 Y157.153 E15.4091
G1 X152.376 Y156.489 E15.41451
G1 X151.919 Y156.122 E15.41819
G1 X151.14 Y155.741 E15.42363
G1 X150.579 Y155.592 E15.42727
G1 X149.708 Y155.557 E15.43273
G1 X149.132 Y155.654 E15.43639
G1 X148.329 Y155.976 E15.44182
