;FLAVOR:Marlin
;TIME:2693
;Filament used: 2.04418m
;Layer height: 0.2
;MINX:105.835
;MINY:103.603
;MINZ:0.2
;MAXX:129.165
;MAXY:130.532
;MAXZ:19.92
;Generated with Cura_SteamEngine 4.7.1
M140 S70
M105
M190 S70
M104 S236
M105
M109 S236
M82 ;absolute extrusion mode
; Ender 3 Custom Start G-code
G92 E0 ; Reset Extruder
G28 ; Home all axes
G1 Z2.0 F3000 ; Move Z Axis up little to prevent scratching of Heat Bed
G1 X0.1 Y20 Z0.3 F5000.0 ; Move to start position
G1 X0.1 Y200.0 Z0.3 F1500.0 E15 ; Draw the first line
G1 X0.4 Y200.0 Z0.3 F5000.0 ; Move to side a little
G1 X0.4 Y20 Z0.3 F1500.0 E30 ; Draw the second line
G92 E0 ; Reset Extruder
G1 Z2.0 F3000 ; Move Z Axis up little to prevent scratching of Heat Bed
G1 X5 Y20 Z0.3 F5000.0 ; Move over to prevent blob squish
G92 E0
G92 E0
G1 F2400 E-6
;LAYER_COUNT:94
;LAYER:0
M107
;MESH:5mw laser mount.stl
G0 F6000 X117.537 Y129.589 Z0.2
;TYPE:WALL-INNER
G1 F2400 E0
G1 F900 X117.59 Y129.594 E0.00177
G1 X118.034 Y129.547 E0.01662
G1 X118.401 Y129.457 E0.02919
G1 X118.464 Y129.438 E0.03138
G1 X118.797 Y129.305 E0.0433
G1 X118.86 Y129.277 E0.0456
G1 X119.222 Y129.067 E0.05952
G1 X119.559 Y128.803 E0.07375
G1 X119.858 Y128.495 E0.08803
G1 X120.11 Y128.146 E0.10235
G1 X120.311 Y127.769 E0.11656
G1 X120.459 Y127.365 E0.13087
G1 X120.548 Y126.944 E0.14518
G1 X120.577 Y126.516 E0.15945
G1 X120.548 Y126.088 E0.17372
G1 X120.459 Y125.667 E0.18803
G1 X120.311 Y125.263 E0.20234
G1 X120.11 Y124.886 E0.21655
G1 X119.858 Y124.537 E0.23087
G1 X119.559 Y124.229 E0.24514
G1 X119.222 Y123.965 E0.25938
G1 X118.849 Y123.749 E0.27372
G1 X118.521 Y123.619 E0.28545
G1 X118.464 Y123.592 E0.28755
G1 X118.103 Y123.503 E0.29992
G1 X118.055 Y123.487 E0.3016
G1 X117.608 Y123.44 E0.31655
G1 X117.233 Y123.451 E0.32903
G1 X117.165 Y123.457 E0.3313
G1 X116.755 Y123.529 E0.34514
G1 X116.347 Y123.662 E0.35942
G1 X115.962 Y123.849 E0.37365
G1 X115.604 Y124.09 E0.38801
G1 X115.286 Y124.379 E0.4023
G1 X115.01 Y124.706 E0.41653
G1 X114.782 Y125.071 E0.43084
G1 X114.608 Y125.464 E0.44514
G1 X114.49 Y125.875 E0.45936
G1 X114.43 Y126.301 E0.47367
G1 X114.43 Y126.731 E0.48797
G1 X114.49 Y127.157 E0.50228
G1 X114.608 Y127.568 E0.5165
G1 X114.782 Y127.961 E0.5308
G1 X115.01 Y128.326 E0.54511
G1 X115.287 Y128.654 E0.55939
G1 X115.604 Y128.941 E0.57361
G1 X115.962 Y129.182 E0.58797
G1 X116.347 Y129.37 E0.60222
G1 X116.755 Y129.503 E0.61649
G1 X117.179 Y129.577 E0.63081
G1 X117.537 Y129.589 E0.64272
G0 F6000 X117.588 Y129.192
;TYPE:WALL-OUTER
G1 F900 X117.965 Y129.152 E0.65533
G1 X118.295 Y129.071 E0.66663
G1 X118.331 Y129.06 E0.66788
G1 X118.642 Y128.936 E0.67902
G1 X118.678 Y128.92 E0.68033
G1 X118.997 Y128.735 E0.69259
G1 X119.291 Y128.505 E0.70501
G1 X119.551 Y128.237 E0.71743
G1 X119.77 Y127.934 E0.72986
G1 X119.945 Y127.605 E0.74226
G1 X120.074 Y127.254 E0.7547
G1 X120.151 Y126.889 E0.7671
G1 X120.176 Y126.516 E0.77954
G1 X120.151 Y126.143 E0.79197
G1 X120.074 Y125.778 E0.80438
G1 X119.945 Y125.427 E0.81682
G1 X119.77 Y125.098 E0.82921
G1 X119.551 Y124.795 E0.84164
G1 X119.291 Y124.527 E0.85406
G1 X118.997 Y124.297 E0.86648
G1 X118.674 Y124.11 E0.87889
G1 X118.361 Y123.985 E0.8901
G1 X118.331 Y123.971 E0.8912
G1 X118.003 Y123.891 E0.90243
G1 X117.97 Y123.88 E0.90359
G1 X117.593 Y123.841 E0.9162
G1 X117.254 Y123.851 E0.92748
G1 X117.215 Y123.854 E0.92878
G1 X116.852 Y123.918 E0.94104
G1 X116.497 Y124.034 E0.95346
G1 X116.162 Y124.197 E0.96585
G1 X115.851 Y124.406 E0.97831
G1 X115.575 Y124.657 E0.99072
G1 X115.334 Y124.942 E1.00313
G1 X115.136 Y125.259 E1.01556
G1 X114.985 Y125.601 E1.028
G1 X114.882 Y125.959 E1.04039
G1 X114.83 Y126.329 E1.05282
G1 X114.83 Y126.703 E1.06526
G1 X114.882 Y127.073 E1.07768
G1 X114.985 Y127.431 E1.09007
G1 X115.136 Y127.773 E1.10251
G1 X115.334 Y128.09 E1.11494
G1 X115.575 Y128.375 E1.12735
G1 X115.851 Y128.625 E1.13974
G1 X116.162 Y128.835 E1.15222
G1 X116.497 Y128.998 E1.16461
G1 X116.852 Y129.114 E1.17703
G1 X117.22 Y129.178 E1.18946
G1 X117.556 Y129.189 E1.20064
G1 X117.588 Y129.192 E1.20171
G0 F6000 X117.59 Y129.632
G0 X118.787 Y129.133
G0 X119.451 Y128.683
G0 X119.973 Y128.061
G0 X120.305 Y127.32
G0 X120.394 Y126.67
G0 X120.147 Y123.165
;TYPE:WALL-INNER
G1 F900 X120.046 Y123.086 E1.20597
G1 X119.897 Y122.969 E1.21227
G1 X119.823 Y122.926 E1.21512
G1 X119.374 Y122.666 E1.23238
G1 X119.003 Y122.52 E1.24564
G1 X118.873 Y122.457 E1.25044
G1 X118.433 Y122.349 E1.26551
G1 X118.312 Y122.308 E1.26976
G1 X117.653 Y122.237 E1.2918
G1 X117.164 Y122.254 E1.30808
G1 X117.011 Y122.266 E1.31318
G1 X116.464 Y122.362 E1.33165
G1 X115.897 Y122.546 E1.35148
G1 X115.362 Y122.805 E1.37125
G1 X115.004 Y123.046 E1.3856
G1 X114.897 Y123.118 E1.38989
G1 X114.86 Y123.143 E1.39138
G1 X114.793 Y123.204 E1.39439
G1 X114.79 Y123.149
G1 X114.774 Y122.937 E1.39894
G1 X114.744 Y122.811 E1.40244
G1 X114.632 Y122.342 E1.41848
G1 X114.4 Y121.787 E1.43849
G1 X114.095 Y121.288 E1.45794
G1 X113.738 Y120.864 E1.47637
G1 X113.612 Y120.749 E1.48205
G1 X113.242 Y120.434 E1.49821
G1 X112.739 Y120.128 E1.51779
G1 X112.181 Y119.894 E1.53792
G1 X111.597 Y119.758 E1.55786
G1 X111.082 Y119.716 E1.57505
G1 X108.3 Y119.716 E1.66758
G1 X108.3 Y106.068 E2.12151
G1 X126.7 Y106.068 E2.7335
G1 X126.7 Y119.716 E3.18743
G1 X123.855 Y119.716 E3.28206
G1 X123.338 Y119.757 E3.29931
G1 X122.75 Y119.894 E3.31939
G1 X122.195 Y120.128 E3.33942
G1 X121.693 Y120.433 E3.35896
G1 X121.232 Y120.824 E3.37906
G1 X120.841 Y121.285 E3.39917
G1 X120.533 Y121.787 E3.41876
G1 X120.302 Y122.346 E3.43887
G1 X120.185 Y122.849 E3.45605
G1 X120.166 Y122.932 E3.45757
G1 X120.162 Y122.99 E3.45772
G1 X120.147 Y123.165 E3.45993
G0 F6000 X120.524 Y124.093
G1 F900 X120.472 Y124.021 E3.46288
G1 X120.174 Y123.715 E3.47709
G1 X120.095 Y123.633 E3.48088
G1 X119.672 Y123.301 E3.49876
G1 X119.199 Y123.027 E3.51694
G1 X118.839 Y122.885 E3.52981
G1 X118.736 Y122.835 E3.53362
G1 X118.318 Y122.732 E3.54794
G1 X118.226 Y122.701 E3.55117
G1 X117.638 Y122.638 E3.57084
G1 X117.187 Y122.653 E3.58585
G1 X117.062 Y122.663 E3.59002
G1 X116.561 Y122.751 E3.60694
G1 X116.047 Y122.918 E3.62491
G1 X115.562 Y123.153 E3.64284
G1 X115.108 Y123.458 E3.66103
G1 X114.791 Y123.747 E3.67529
G1 X114.708 Y123.823 E3.67904
G1 X114.409 Y124.178 E3.69447
G1 X114.409 Y123.823 E3.69827
G1 X114.409 Y123.71 E3.7016
G1 X114.409 Y123.453 E3.71015
G1 X114.377 Y122.998 E3.72532
G1 X114.25 Y122.466 E3.74351
G1 X114.043 Y121.969 E3.76142
G1 X113.77 Y121.523 E3.77881
G1 X113.449 Y121.142 E3.79538
G1 X113.347 Y121.049 E3.79997
G1 X113.007 Y120.759 E3.81484
G1 X112.557 Y120.485 E3.83236
G1 X112.057 Y120.276 E3.85039
G1 X111.535 Y120.154 E3.86822
G1 X111.066 Y120.116 E3.88387
G1 X107.9 Y120.116 E3.98917
G1 X107.9 Y105.668 E4.46971
G1 X127.1 Y105.668 E5.1083
G1 X127.1 Y120.116 E5.58885
G1 X123.871 Y120.116 E5.69624
G1 X123.4 Y120.153 E5.71196
G1 X122.874 Y120.276 E5.72992
G1 X122.377 Y120.485 E5.74786
G1 X121.928 Y120.758 E5.76533
G1 X121.516 Y121.108 E5.78331
G1 X121.166 Y121.52 E5.80129
G1 X120.891 Y121.969 E5.81881
G1 X120.684 Y122.469 E5.83681
G1 X120.562 Y122.994 E5.85473
G1 X120.524 Y123.46 E5.87028
G1 X120.524 Y123.594 E5.87474
G1 X120.524 Y124.021 E5.88322
G1 X120.524 Y124.093 E5.88324
G0 F6000 X120.389 Y126.921
G0 X120.164 Y127.703
G0 X119.735 Y128.391
G0 X119.131 Y128.934
G0 X118.358 Y129.302
G0 X117.701 Y129.403
G0 X114.793 Y129.286
G1 F900 X114.745 Y129.266 E5.88497
G1 X114.697 Y129.237 E5.88683
G1 X114.662 Y129.215 E5.88821
G1 X114.59 Y129.154 E5.89135
G1 X114.525 Y129.078 E5.89467
G1 X114.478 Y129.001 E5.89767
G1 X114.443 Y128.918 E5.90067
G1 X114.436 Y128.885 E5.90179
G1 X114.455 Y128.907
G1 X114.51 Y128.973 E5.90212
G1 X114.567 Y129.041 E5.9026
G1 X114.632 Y129.118 E5.90308
G1 X114.692 Y129.189 E5.90341
G1 X114.711 Y129.212
G1 X114.756 Y129.253 E5.90359
G1 X114.793 Y129.286 E5.90359
G0 F6000 X116.177 Y129.732
G1 F900 X115.762 Y129.732 E5.91739
G1 X115.441 Y129.732 E5.92807
G1 X115.051 Y129.732 E5.94104
G1 X114.854 Y129.716 E5.94762
G1 X114.696 Y129.679 E5.95301
G1 X114.562 Y129.623 E5.95784
G1 X114.425 Y129.539 E5.96319
G1 X114.306 Y129.437 E5.9684
G1 X114.201 Y129.314 E5.97378
G1 X114.12 Y129.182 E5.97893
G1 X114.063 Y129.046 E5.98384
G1 X114.055 Y129.01 E5.98506
G1 X114.048 Y128.978 E5.98615
G1 X114.026 Y128.888 E5.98923
G1 X114.01 Y128.692 E5.99577
G1 X114.01 Y128.125 E6.01463
G1 X114.01 Y127.705 E6.0286
G1 X114.01 Y127.24 E6.04407
G1 X114.01 Y126.759 E6.06007
G1 X114.01 Y126.273 E6.07623
G1 X114.01 Y125.792 E6.09223
G1 X114.01 Y125.328 E6.10766
G1 X114.01 Y124.909 E6.1216
G1 X114.009 Y123.467 E6.16956
G1 X113.98 Y123.059 E6.18316
G1 X113.868 Y122.59 E6.1992
G1 X113.686 Y122.151 E6.21501
G1 X113.445 Y121.758 E6.23034
G1 X113.159 Y121.419 E6.24509
G1 X113.082 Y121.348 E6.24858
G1 X112.772 Y121.084 E6.26212
G1 X112.375 Y120.842 E6.27758
G1 X112.347 Y120.831 E6.27858
G1 X111.934 Y120.658 E6.29348
G1 X111.473 Y120.55 E6.30922
G1 X111.05 Y120.516 E6.32334
G1 X107.5 Y120.516 E6.44141
G1 X107.5 Y105.268 E6.94856
G1 X127.5 Y105.268 E7.61376
G1 X127.5 Y120.516 E8.12092
G1 X123.887 Y120.516 E8.24108
G1 X123.462 Y120.549 E8.25526
G1 X122.998 Y120.658 E8.27112
G1 X122.559 Y120.842 E8.28695
G1 X122.163 Y121.083 E8.30237
G1 X121.8 Y121.392 E8.31822
G1 X121.491 Y121.755 E8.33408
G1 X121.249 Y122.151 E8.34951
G1 X121.066 Y122.592 E8.36539
G1 X120.958 Y123.056 E8.38124
G1 X120.924 Y123.476 E8.39525
G1 X120.924 Y124.796 E8.43916
G1 X120.924 Y125.099 E8.44923
G1 X120.924 Y125.556 E8.46443
G1 X120.924 Y125.934 E8.47701
G1 X120.844 Y125.556 E8.47847
G1 X120.677 Y125.099 E8.48553
G1 X120.535 Y124.832 E8.49372
G1 X120.45 Y124.674 E8.49969
G1 X120.165 Y124.279 E8.51589
G1 X119.827 Y123.931 E8.53203
G1 X119.447 Y123.633 E8.54809
G1 X119.024 Y123.388 E8.56435
G1 X118.675 Y123.25 E8.57683
G1 X118.599 Y123.213 E8.57964
G1 X118.211 Y123.118 E8.59293
G1 X118.14 Y123.094 E8.59542
G1 X117.623 Y123.039 E8.61271
G1 X117.21 Y123.052 E8.62646
G1 X117.113 Y123.06 E8.62969
G1 X116.658 Y123.14 E8.64506
G1 X116.197 Y123.29 E8.66118
G1 X115.762 Y123.501 E8.67726
G1 X115.356 Y123.774 E8.69354
G1 X114.997 Y124.101 E8.70969
G1 X114.686 Y124.47 E8.72574
G1 X114.428 Y124.883 E8.74193
G1 X114.401 Y124.944 E8.74415
G1 X114.231 Y125.327 E8.75505
G1 X114.098 Y125.792 E8.7621
G1 X114.095 Y125.819 E8.76265
G1 X114.03 Y126.273 E8.76443
G1 X114.03 Y126.759 E8.76524
G1 X114.098 Y127.24 E8.76751
G1 X114.231 Y127.705 E8.77402
G1 X114.401 Y128.089 E8.78493
G1 X114.428 Y128.149 E8.78712
G1 X114.686 Y128.562 E8.80332
G1 X114.999 Y128.933 E8.81946
G1 X115.357 Y129.257 E8.83552
G1 X115.496 Y129.35 E8.84108
G1 X115.762 Y129.529 E8.84924
G1 X115.786 Y129.54 E8.85012
G1 X116.177 Y129.732 E8.85415
G0 F6000 X120.277 Y129.212
G1 F900 X120.335 Y129.152 E8.85693
G1 X120.411 Y129.073 E8.86057
G1 X120.409 Y129.078
G1 X120.341 Y129.157
G1 X120.277 Y129.212 E8.86062
G0 F6000 X120.08 Y129.716
G1 F900 X119.883 Y129.732 E8.86719
G1 X119.542 Y129.732 E8.87853
G1 X119.447 Y129.732 E8.88169
G1 X119.042 Y129.732 E8.89516
G1 X118.952 Y129.732 E8.89815
G1 X118.807 Y129.732 E8.90298
G1 X118.952 Y129.674 E8.90362
G1 X119.042 Y129.634 E8.90436
G1 X119.447 Y129.399 E8.91348
G1 X119.521 Y129.341 E8.91636
G1 X119.827 Y129.101 E8.9293
G1 X120.165 Y128.753 E8.94543
G1 X120.45 Y128.358 E8.96163
G1 X120.535 Y128.2 E8.9676
G1 X120.677 Y127.933 E8.97766
G1 X120.844 Y127.476 E8.99384
G1 X120.849 Y127.448 E8.99479
G1 X120.924 Y127.098 E9.00669
G1 X120.924 Y127.476 E9.00833
G1 X120.924 Y127.933 E9.01441
G1 X120.924 Y128.236 E9.02263
G1 X120.924 Y128.693 E9.03783
G1 X120.908 Y128.888 E9.04433
G1 X120.871 Y129.046 E9.04973
G1 X120.814 Y129.182 E9.05463
G1 X120.733 Y129.314 E9.05979
G1 X120.627 Y129.438 E9.06521
G1 X120.513 Y129.537 E9.07023
G1 X120.375 Y129.621 E9.07561
G1 X120.234 Y129.68 E9.08069
G1 X120.08 Y129.716 E9.08595
G0 F6000 X120.139 Y130.113
G1 F900 X119.903 Y130.132 E9.09383
G1 X115.031 Y130.132 E9.25587
G1 X114.795 Y130.113 E9.26374
G1 X114.571 Y130.06 E9.2714
G1 X114.377 Y129.979 E9.27839
G1 X114.19 Y129.865 E9.28568
G1 X114.022 Y129.72 E9.29306
G1 X113.876 Y129.55 E9.30051
G1 X113.763 Y129.365 E9.30772
G1 X113.682 Y129.171 E9.31471
G1 X113.675 Y129.138 E9.31583
G1 X113.629 Y128.947 E9.32237
G1 X113.61 Y128.712 E9.33021
G1 X113.609 Y123.481 E9.50419
G1 X113.583 Y123.12 E9.51623
G1 X113.486 Y122.714 E9.53012
G1 X113.328 Y122.333 E9.54383
G1 X113.12 Y121.993 E9.55709
G1 X112.869 Y121.696 E9.57002
G1 X112.816 Y121.647 E9.57243
G1 X112.537 Y121.409 E9.58462
G1 X112.193 Y121.199 E9.59803
G1 X111.811 Y121.04 E9.61179
G1 X111.411 Y120.946 E9.62546
G1 X111.034 Y120.916 E9.63804
G1 X107.1 Y120.916 E9.76888
G1 X107.1 Y104.868 E10.30264
G1 X127.9 Y104.868 E10.99445
G1 X127.9 Y120.916 E11.52821
G1 X123.902 Y120.916 E11.66118
G1 X123.524 Y120.945 E11.67379
G1 X123.122 Y121.04 E11.68753
G1 X122.741 Y121.199 E11.70126
G1 X122.398 Y121.408 E11.71462
G1 X122.084 Y121.676 E11.72835
G1 X121.816 Y121.99 E11.74208
G1 X121.607 Y122.333 E11.75544
G1 X121.448 Y122.715 E11.7692
G1 X121.354 Y123.118 E11.78297
G1 X121.324 Y123.492 E11.79545
G1 X121.324 Y128.713 E11.9691
G1 X121.305 Y128.947 E11.97691
G1 X121.252 Y129.171 E11.98456
G1 X121.171 Y129.365 E11.99155
G1 X121.058 Y129.55 E11.99876
G1 X120.912 Y129.721 E12.00624
G1 X120.747 Y129.863 E12.01348
G1 X120.56 Y129.977 E12.02077
G1 X120.388 Y130.048 E12.02696
G1 X120.358 Y130.061 E12.02804
G1 X120.327 Y130.068 E12.0291
G1 X120.139 Y130.113 E12.03553
G0 F6000 X120.2 Y130.51
;TYPE:WALL-OUTER
G1 F900 X119.921 Y130.532 E12.04484
G1 X115.013 Y130.532 E12.20808
G1 X114.734 Y130.51 E12.21739
G1 X114.45 Y130.442 E12.2271
G1 X114.192 Y130.335 E12.23639
G1 X113.954 Y130.189 E12.24568
G1 X113.738 Y130.004 E12.25514
G1 X113.553 Y129.788 E12.2646
G1 X113.407 Y129.55 E12.27388
G1 X113.3 Y129.292 E12.28317
G1 X113.232 Y129.008 E12.29288
G1 X113.21 Y128.732 E12.30209
G1 X113.209 Y123.496 E12.47624
G1 X113.186 Y123.181 E12.48675
G1 X113.104 Y122.838 E12.49848
G1 X112.97 Y122.515 E12.51011
G1 X112.795 Y122.228 E12.52129
G1 X112.579 Y121.973 E12.5324
G1 X112.55 Y121.946 E12.53372
G1 X112.301 Y121.734 E12.5446
G1 X112.011 Y121.556 E12.55592
G1 X111.688 Y121.422 E12.56755
G1 X111.349 Y121.342 E12.57913
G1 X111.018 Y121.316 E12.59018
G1 X106.7 Y121.316 E12.73379
G1 X106.7 Y104.468 E13.29416
G1 X128.3 Y104.468 E14.01258
G1 X128.3 Y121.316 E14.57295
G1 X123.917 Y121.316 E14.71872
G1 X123.586 Y121.341 E14.72976
G1 X123.246 Y121.422 E14.74139
G1 X122.923 Y121.556 E14.75302
G1 X122.634 Y121.733 E14.76429
G1 X122.368 Y121.96 E14.77592
G1 X122.141 Y122.226 E14.78755
G1 X121.964 Y122.515 E14.79883
G1 X121.83 Y122.838 E14.81046
G1 X121.75 Y123.18 E14.82214
G1 X121.724 Y123.508 E14.83308
G1 X121.724 Y128.732 E15.00683
G1 X121.702 Y129.008 E15.01604
G1 X121.634 Y129.292 E15.02575
G1 X121.527 Y129.55 E15.03504
G1 X121.381 Y129.788 E15.04433
G1 X121.196 Y130.004 E15.05379
G1 X120.983 Y130.187 E15.06313
G1 X120.74 Y130.336 E15.07261
G1 X120.484 Y130.442 E15.08183
G1 X120.2 Y130.51 E15.09154
G0 F6000 X120.132 Y130.076
G0 X120.416 Y126.516
G0 X120.137 Y122.564
G0 X119.866 Y122.501
;TYPE:SKIN
G1 F900 X119.544 Y122.313 E15.10394
G1 X119.161 Y122.163 E15.11762
G1 X119.006 Y122.088 E15.12335
G1 X118.535 Y121.972 E15.13948
G1 X118.396 Y121.925 E15.14436
G1 X117.667 Y121.847 E15.16875
G1 X117.142 Y121.864 E15.18622
G1 X116.962 Y121.878 E15.19222
G1 X116.37 Y121.982 E15.21221
G1 X115.751 Y122.183 E15.23386
G1 X115.167 Y122.466 E15.25545
G1 X115.077 Y122.526 E15.25904
G1 X115.004 Y122.221 E15.26947
G1 X114.749 Y121.609 E15.29153
G1 X114.413 Y121.06 E15.31293
G1 X114.02 Y120.593 E15.33323
G1 X113.87 Y120.456 E15.33999
G1 X113.472 Y120.117 E15.35738
G1 X112.917 Y119.779 E15.37899
G1 X112.302 Y119.522 E15.40116
G1 X111.657 Y119.372 E15.42319
G1 X111.098 Y119.326 E15.44184
G1 X108.69 Y119.326 E15.52193
G1 X108.69 Y106.458 E15.94992
G1 X126.31 Y106.458 E16.53597
G1 X126.31 Y119.326 E16.96396
G1 X123.839 Y119.326 E17.04615
G1 X123.278 Y119.371 E17.06486
G1 X122.629 Y119.522 E17.08703
G1 X122.017 Y119.779 E17.1091
G1 X121.465 Y120.115 E17.1306
G1 X120.955 Y120.547 E17.15283
G1 X120.525 Y121.055 E17.17496
G1 X120.184 Y121.609 E17.1966
G1 X119.929 Y122.227 E17.21884
